!!!!SEGMENT: pl-wn--mus-iii-127-018-cim_katski-apolinary--wanda-mazour-op-10.krn
!!!cenid: 18xx:3631
!!!COM: Kątski, Apolinary
!!!COM-rismID: pe30020040
!!!CDT: 1825-1879
!!!CNT: Polish
!!!OTL: Wanda-mazour op. 10
!!!PDT:
!!!AGN:
!!!SMS-siglum: PL-Wn
!!!SMS-shelfmark: Mus.III.127.018 Cim.
!!!SMS-shelfwork: W
!!!SMS-variant:
!!!SMS-altvar:
!!!NIFC-rismSourceID:
!!!NIFC-rismChildID:
!!!NIFC-islandoraID:
!!!URL-pdf-islandora:
!!!URL-scan: https://polona.pl/item/wanda-mazour-op-10,MTAwOTE0MzA1/1 @EN{Scan on Polona} @PL{Skany w portalu Polona}
!!!ONB-nifc:
!!!AIN: 1 piano
!!!key: D
**kern	**kern	**dynam
*part1	*part1	*part1
*staff2	*staff1	*
*I"Piano	*I"Piano	*
*I'pf	*I'pf	*
*Ipiano	*Ipiano	*
*ICklav	*ICklav	*
*clefF4	*clefG2	*
*k[f#c#]	*k[f#c#]	*
*D:	*D:	*
*M3/4	*M3/4	*
*>[A,B,A]	*>[A,B,A]	*
=1	=1	=1
!!!OMD: Allegro.
*>A	*>A	*
*	*^	*
*xywh-3:289,332,3564,2403	*xywh-3:289,332,3564,2403	*xywh-3:289,332,3564,2403	*
8D'\	8dd 8f#/	4ryy	p
8r	8r	.	.
2d 2A 2F#\	(>4.dd^>/	2f#\	.
.	8cc#/)	.	.
*	*v	*v	*
=2	=2	=2
.	(<8qcc#/	.
8AA'/	8b 8g/)	.
8r	8r	.
2e 2c# 2A 2G\	2a [<2g^</	.
=3	=3	=3
8AA'/	8g/L]	<
8r	16r	.
.	(<16a/Jk	.
4e 4c# 4A 4G\	4b 4g/)	.
4e 4c# 4A 4G\	4cc# 4g/	[[
=4	=4	=4
*	*^	*
8D'\	8dd 8f#/	4ryy	.
8r	8r	.	.
2d 2A 2F#\	(>4.ff#^>/	2f#\	.
.	8a/)	.	.
=5	=5	=5	=5
8D'\	8dd 8f#/	4ryy	.
8r	8r	.	.
2d 2A 2F#\	(>4.ff#^>/	2f#\	.
.	8a/)	.	.
*	*v	*v	*
!!LO:LB:g=original
=6	=6	=6
*xywh-3:295,2680,3386,909	*xywh-3:295,2680,3386,909	*
.	(<8qcc#/	.
8AA'/	8b 8g/)	.
8r	8r	.
2e 2c# 2A 2G\	2a [<2g^</	.
=7	=7	=7
8AA'/	8g/L]	.
8r	16r	.
.	(<16a/Jk	.
4e 4c# 4A 4G\	4b 4g/)	.
4e 4c# 4A 4G\	4cc# 4g/	.
=8	=8	=8
*	*	*^
4D/	4dd 4f#/	.	.
!	!	!	!LO:DY:b=2
4D 4DD/	4ddd 4aa 4ff# 4dd\	sf	sf
4r	4r	.	.
*	*	*v	*v
=9	=9	=9
*	*^	*
*	*	*	*^
!	!	!	!	!LO:DY:b=2
8D 8DD/	8dd 8f#/	4ryy	ff	ff
8r	8r	.	.	.
2d 2A 2F#^<\	(>4.ff#^>/	2f#\	.	.
.	8a/)	.	.	.
*	*	*	*v	*v
*	*v	*v	*
=10	=10	=10
.	(<8qcc#/	.
8AA 8AAA/	8b 8g/)	.
8r	8r	.
2e 2c# 2A 2G^<\	2a [<2g^</	.
=11	=11	=11
8AA 8AAA/	8g/L]	.
8r	16r	.
.	(<16a/Jk	.
4e 4c# 4A 4G\	4b 4g/)	.
4e 4c# 4A 4G\	4cc# 4g/	.
!!LO:LB:g=original
=12	=12	=12
*	*^	*
*xywh-3:400,3497,3275,1358	*xywh-3:400,3497,3275,1358	*xywh-3:400,3497,3275,1358	*
8D 8DD/	8ddL 8f#^</	4ryy	<
8r	8eeJ 8f#^</	.	.
2d 2A 2F#^<\	(>4.ff#^>/	2f#\	[ >
.	8a/)	.	]]
=13	=13	=13	=13
8D 8DD/	8dd 8f#/	4ryy	.
8r	8r	.	.
2d 2A 2F#^<\	(>4.dd^>/	2f#\	.
.	8cc#/)	.	.
*	*v	*v	*
=14	=14	=14
.	(<8qcc#/	.
8AA 8AAA/	8b 8g/)	.
8r	8r	.
2e 2c# 2A 2G^<\	2a [<2g^</	.
=15	=15	=15
8AA 8AAA/	8g/L]	.
8r	16r	.
.	(<16a/Jk	.
4e 4c# 4A 4G\	4b 4g/)	.
4e 4c# 4A 4G\	4cc# 4g/	.
=16	=16	=16
*	*	*^
4D 4DD/	4dd 4f#/	.	.
!	!	!	!LO:DY:b=2
4D 4DD/	4ddd 4aa 4ff# 4dd\	sf	sf
4r	4r	.	.
*	*	*v	*v
!!LO:PB:g=original
=17||	=17||	=17||
*xywh-4:404,367,3438,1477	*xywh-4:404,367,3438,1477	*
4BB/	4ff#'\	p
!	!LO:TX:b:i:B::t=con espressione	!
2d 2B 2F#\	8r	.
.	(>8dd\L	.
.	8cc#\	.
.	8b\J	.
=18	=18	=18
4FF#/	8a#X/L)	.
.	16r	.
.	(<16cc#/Jk	.
4e 4c# 4A#X 4F#\	4g^</)	.
4e 4c# 4A# 4F#\	4f#/	.
=19	=19	=19
.	(<16qqb/LL	.
.	16qqcc#/JJ	.
4BB/	8b/L)	.
.	8a#X'/J	.
2d 2B 2F#\	8b'\L	.
.	8dd'\	.
.	8cc#'\	.
.	8b'\J	.
=20	=20	=20
4FF#/	8a#X'\L	.
.	16r	.
.	(>16cc#\Jk	.
!	!	!LO:HP:a
4e 4c# 4A#X 4F#\	4.gg 4.g\	>
4e 4c# 4A# 4F#\	.	.
.	8ff# 8f#\)	]
!!LO:LB:g=original
=21	=21	=21
*xywh-4:331,1709,3591,974	*xywh-4:331,1709,3591,974	*
4BB/	4ff#'\	.
2d 2B 2F#\	8r	.
.	(>8dd\L	.
.	8cc#\	.
.	8b\J	.
=22	=22	=22
4FF#/	8a#X\L)	.
.	16r	.
.	(>16cc#\Jk	.
4e 4c# 4A#X 4F#\	4g^</)	.
4e 4c# 4A# 4F#\	4f#/	.
=23	=23	=23
.	(<16qqb/LL	.
.	16qqcc#/JJ	.
4BB/	8b/L)	.
.	(>8a#X/J	.
4d 4B 4F#\	8b\L	.
.	8dd\	.
4e 4c# 4F#\	8.ff#\)	.
.	(>16a#\Jk	.
=24	=24	=24
4BB/	8cc#\L)	.
.	16r	.
.	16b\Jk	.
4d 4B 4F#\	4b\	.
4r	4r	.
!!LO:LB:g=original
=25	=25	=25
*xywh-4:331,2610,3425,937	*xywh-4:331,2610,3425,937	*
4BB/	4ff#'\	.
2d 2B 2F#\	8r	.
.	(>8dd\L	.
.	8cc#\	.
.	8b\J	.
=26	=26	=26
4FF#/	8a#X\L)	.
.	16r	.
.	(>16cc#\Jk	.
4e 4c# 4A#X 4F#\	4g^</)	.
4e 4c# 4A# 4F#\	4f#/	.
=27	=27	=27
.	(<16qqb/LL	.
.	16qqcc#/JJ	.
4BB/	8b/L)	.
.	8a#X'/J	.
2d 2B 2F#\	8b'\L	.
.	8dd'\	.
.	8cc#'\	.
.	8b'\J	.
=28	=28	=28
4FF#/	8a#X'\L	.
.	16r	.
.	(>16cc#\Jk	.
!	!	!LO:HP:a
4e 4c# 4A#X 4F#\	4.gg 4.g\	>
4e 4c# 4A# 4F#\	.	.
.	8ff# 8f#\)	]
!!LO:LB:g=original
=29	=29	=29
*xywh-4:294,3444,3609,1421	*xywh-4:294,3444,3609,1421	*
4BB/	4ff#'\	.
2d 2B 2F#\	8r	.
.	(>8dd\L	.
.	8cc#\	.
.	8b\J	.
=30	=30	=30
4FF#/	8a#X\L)	.
.	16r	.
.	(>16cc#\Jk	.
4e 4c# 4A#X 4F#\	4g^</)	.
4e 4c# 4A# 4F#\	4f#/	.
=31	=31	=31
.	(<16qqb/LL	.
.	16qqcc#/JJ	.
4BB/	8b/L)	.
.	8a#X'/J	.
2d 2B 2F#\	8b'\L	.
.	8dd'\	.
.	8cc#'\	.
.	(>8b\J	.
=32	=32	=32
4GG/	8a#X\L)	<
.	16r	.
.	(>16cc#\Jk	.
2c# 2A#X 2F#\	4.ff#^>\)	.
.	(>8f#/	.
!!LO:PB:g=original
=33	=33	=33
*xywh-5:258,384,3466,1461	*xywh-5:258,384,3466,1461	*
4FF#/	8ff#\L)	.
.	16r	.
.	(>16f#\Jk	.
2c# 2A#X 2F#\	4.ff#^>\)	[ f
.	(>8f#/	.
=34	=34	=34
4FF#/	8ff#\L)	.
.	16r	.
.	(>16f#\Jk	.
2c# 2A#X 2F#\	8ff#\L)	.
.	16r	.
.	(>16f#\Jk	.
.	8ff#\L)	<
.	16r	.
!	!LO:TX:b:i:B:t=un poco rall.	!
.	(>16f#\Jk	.
=35	=35	=35
2.r	8ff#\L)	.
.	16r	.
.	(>16f#\Jk	.
.	8ff#\L)	.
.	16r	.
.	(>16f#\Jk	.
.	8ff#\L)	.
.	16r	.
.	16f#\Jk	[[
=36	=36	=36
*	*^	*
8D'\	8dd 8f#/	4ryy	p
8r	8r	.	.
2d 2A 2F#\	(>4.dd^>/	2f#\	.
.	8cc#/)	.	.
*	*v	*v	*
!!LO:LB:g=original
=37	=37	=37
*xywh-5:215,1760,3570,953	*xywh-5:215,1760,3570,953	*
.	(<8qcc#/	.
8AA'/	8b 8g/)	.
8r	8r	.
2e 2c# 2A 2G\	(<2a 2g^</	.
=38	=38	=38
8AA'/	8g/L)	<
8r	16r	.
.	(<16a/Jk	.
4e 4c# 4A 4G\	4b 4g/)	.
4e 4c# 4A 4G\	4cc# 4g/	[[
=39	=39	=39
*	*^	*
8D'\	8dd 8f#/	4ryy	.
8r	8r	.	.
2d 2A 2F#\	(>4.ff#^>/	2f#\	.
.	8a/)	.	.
=40	=40	=40	=40
8D'\	8dd 8f#/	4ryy	.
8r	8r	.	.
2d 2A 2F#\	(>4.dd^>/	2f#\	.
.	8cc#/)	.	.
*	*v	*v	*
=41	=41	=41
.	(<8qcc#/	.
8AA'/	8b 8g/)	.
8r	8r	.
2e 2c# 2A 2G\	2a [<2g^</	.
!!LO:LB:g=original
=42	=42	=42
*xywh-5:215,2616,3686,947	*xywh-5:215,2616,3686,947	*
8AA'/	8g/L]	.
8r	16r	.
.	(<16a/Jk	.
4e 4c# 4A 4G\	4b 4g/)	.
4e 4c# 4A 4G\	4cc# 4g/	.
=43	=43	=43
*	*	*^
4D/	4dd 4f#/	.	.
!	!	!	!LO:DY:b=2
4D 4DD/	4ddd 4aa 4ff# 4dd\	sf	sf
4r	4r	.	.
*	*	*v	*v
=44	=44	=44
*	*^	*
*	*	*	*^
!	!	!	!	!LO:DY:b=2
8D 8DD/	8dd 8f#/	4ryy	ff	ff
8r	8r	.	.	.
2d 2A 2F#^<\	(>4.dd^>/	2f#\	.	.
.	8cc#/)	.	.	.
*	*	*	*v	*v
*	*v	*v	*
=45	=45	=45
.	(<8qcc#/	.
8AA 8AAA/	8b 8g/)	.
8r	8r	.
2e 2c# 2A 2G^<\	2a [<2g^</	.
=46	=46	=46
8AA 8AAA/	8g/L]	.
8r	16r	.
.	(<16a/Jk	.
4e 4c# 4A 4G\	4b 4g/)	.
4e 4c# 4A 4G\	4cc# 4g/	.
!!LO:LB:g=original
=47	=47	=47
*	*^	*
*xywh-5:233,3466,3637,1394	*xywh-5:233,3466,3637,1394	*xywh-5:233,3466,3637,1394	*
8D 8DD/	8ddL 8f#^</	4ryy	<
8r	8eeJ 8f#^</	.	.
2d 2A 2F#^<\	(>4.ff#^>/	2f#\	[ >
.	8a/)	.	]]
=48	=48	=48	=48
8D 8DD/	8dd 8f#/	4ryy	.
8r	8r	.	.
2d 2A 2F#^<\	(>4.dd^>/	2f#\	.
.	8cc#/)	.	.
*	*v	*v	*
=49	=49	=49
.	(<8qcc#/	.
8AA 8AAA/	8b 8g/)	.
8r	8r	.
2e 2c# 2A 2G^<\	2a [<2g^</	.
=50	=50	=50
8AA 8AAA/	8g/L]	.
8r	16r	.
.	(<16a/Jk	.
4e 4c# 4A 4G\	4b 4g/)	.
4e 4c# 4A 4G\	4cc# 4g/	.
=51	=51	=51
*	*	*^
4D 4DD/	4dd 4f#/	.	.
!	!	!	!LO:DY:b=2
4D 4DD/	4ddd 4aa 4ff# 4dd\	sf	sf
4r	4r	.	.
*	*	*v	*v
!!LO:PB:g=original
=52||	=52||	=52||
*xywh-6:303,492,3621,1309	*xywh-6:303,492,3621,1309	*
4BB/	4ff#'\	p
!	!LO:TX:b:i:B:t=con espressione	!
2d 2B 2F#\	8r	.
.	(>8dd\L	.
.	8cc#\	.
.	8b\J	.
=53	=53	=53
4FF#/	8a#X\L)	.
.	16r	.
.	(>16cc#\Jk	.
4e 4c# 4A#X 4F#\	4g^</)	.
4e 4c# 4A# 4F#\	4f#/	.
=54	=54	=54
.	(<16qqb/LL	.
.	16qqcc#/JJ	.
4BB/	8b/L)	.
.	8a#X'/J	.
2d 2B 2F#\	8b'\L	.
.	8dd'\	.
.	8cc#'\	.
.	8b'\J	.
=55	=55	=55
4FF#/	8a#X'\L	.
.	16r	.
.	(>16cc#\Jk	.
!	!	!LO:HP:a
4e 4c# 4A#X 4F#\	4.gg 4.g\	>
4e 4c# 4A# 4F#\	.	.
.	8ff# 8f#\)	]
!!LO:LB:g=original
=56	=56	=56
*xywh-6:266,1740,3522,946	*xywh-6:266,1740,3522,946	*
4BB/	4ff#'\	.
2d 2B 2F#\	8r	.
.	(>8dd\L	.
.	8cc#\	.
.	8b\J	.
=57	=57	=57
4FF#/	8a#X\L)	.
.	16r	.
.	(>16cc#\Jk	.
4e 4c# 4A#X 4F#\	4g^</)	.
4e 4c# 4A# 4F#\	4f#/	.
=58	=58	=58
.	(<16qqb/LL	.
.	16qqcc#/JJ	.
4BB/	8b/L)	.
.	(>8a#X/J	.
4d 4B 4F#\	8b\L	.
.	8dd\	.
4e 4c# 4F#\	8.ff#\)	.
.	(>16a#\Jk	.
=59	=59	=59
4BB/	8cc#\L)	.
.	16r	.
.	16b\Jk	.
4d 4B 4F#\	4b\	.
4r	4r	.
!!LO:LB:g=original
=60	=60	=60
*xywh-6:303,2576,3670,971	*xywh-6:303,2576,3670,971	*
4BB/	4ff#'\	.
2d 2B 2F#\	8r	.
.	(>8dd\L	.
.	8cc#\	.
.	8b\J	.
=61	=61	=61
4FF#/	8a#X\L)	.
.	16r	.
.	(>16cc#\Jk	.
4e 4c# 4A#X 4F#\	4g^</)	.
4e 4c# 4A# 4F#\	4f#/	.
=62	=62	=62
.	(<16qqb/LL	.
.	16qqcc#/JJ	.
4BB/	8b/L)	.
.	8a#X'/J	.
2d 2B 2F#\	8b'\L	.
.	8dd'\	.
.	8cc#'\	.
.	8b'\J	.
=63	=63	=63
4FF#/	8a#X'\L	.
.	16r	.
.	(>16cc#\Jk	.
!	!	!LO:HP:a
4e 4c# 4A#X 4F#\	4.gg 4.g\	>
4e 4c# 4A# 4F#\	.	.
.	8ff# 8f#\)	]
!!LO:LB:g=original
=64	=64	=64
*xywh-6:266,3492,3707,1401	*xywh-6:266,3492,3707,1401	*
4BB/	4ff#'\	.
2d 2B 2F#\	8r	.
.	(>8dd\L	.
.	8cc#\	.
.	8b\J	.
=65	=65	=65
4FF#/	8a#X\L)	.
.	16r	.
.	(>16cc#\Jk	.
4e 4c# 4A#X 4F#\	4g^</)	.
4e 4c# 4A# 4F#\	4f#/	.
=66	=66	=66
.	(<16qqb/LL	.
.	16qqcc#/JJ	.
4BB/	8b/L)	.
.	8a#X'/J	.
2d 2B 2F#\	8b'\L	.
.	8dd'\	.
.	8cc#'\	.
.	(>8b\J	.
=67	=67	=67
4FF#/	8a#X\L)	<
.	16r	.
.	(>16cc#\Jk	.
2c# 2A#X 2F#\	4.ff#^>\)	.
.	(>8f#/	.
!!LO:PB:g=original
=68	=68	=68
*xywh-7:339,416,3507,1432	*xywh-7:339,416,3507,1432	*
4FF#/	8ff#\L)	.
.	16r	.
.	(>16f#\Jk	.
2c# 2A#X 2F#\	4.ff#^>\)	[ f
.	(>8f#/	.
=69	=69	=69
4FF#/	8ff#\L)	.
.	16r	.
.	(>16f#\Jk	.
2c# 2A#X 2F#\	8ff#\L)	.
.	16r	.
.	(>16f#\Jk	.
.	8ff#\L)	<
.	16r	.
!	!LO:TX:b:i:B:t=un poco rall.	!
.	(>16f#\Jk	.
=70	=70	=70
2.r	8ff#\L)	.
.	16r	.
.	(>16f#\Jk	.
.	8ff#\L)	.
.	16r	.
.	(>16f#\Jk	.
.	8ff#\L)	.
.	16r	.
.	16f#\Jk	[[
=71	=71	=71
*	*^	*
8D'\	8dd 8f#/	4ryy	p
8r	8r	.	.
2d 2A 2F#\	(>4.dd^>/	2f#\	.
.	8cc#/)	.	.
*	*v	*v	*
!!LO:LB:g=original
=72	=72	=72
*xywh-7:223,1769,3532,869	*xywh-7:223,1769,3532,869	*
.	(<8qcc#/	.
8AA'/	8b 8g/)	.
8r	8r	.
2e 2c# 2A 2G\	(<2a 2g^</	.
=73	=73	=73
8AA'/	8g/L)	<
8r	16r	.
.	(<16a/Jk	.
4e 4c# 4A 4G\	4b 4g/)	.
4e 4c# 4A 4G\	4cc# 4g/	[[
=74	=74	=74
*	*^	*
8D'\	8dd 8f#/	4ryy	.
8r	8r	.	.
2d 2A 2F#\	(>4.ff#^>/	2f#\	.
.	8a/)	.	.
=75	=75	=75	=75
8D'\	8dd 8f#/	4ryy	.
8r	8r	.	.
2d 2A 2F#\	(>4.dd^>/	2f#\	.
.	8cc#/)	.	.
*	*v	*v	*
=76	=76	=76
.	(<8qcc#/	.
8AA'/	8b 8g/)	.
8r	8r	.
2e 2c# 2A 2G\	2a [<2g^</	.
!!LO:LB:g=original
=77	=77	=77
*xywh-7:321,2601,3428,991	*xywh-7:321,2601,3428,991	*
8AA'/	8g/L]	.
8r	16r	.
.	(<16a/Jk	.
4e 4c# 4A 4G\	4b 4g/)	.
4e 4c# 4A 4G\	4cc# 4g/	.
=78	=78	=78
*	*	*^
4D/	4dd 4f#/	.	.
!	!	!	!LO:DY:b=2
4D 4DD/	4ddd 4aa 4ff# 4dd\	sf	sf
4r	4r	.	.
*	*	*v	*v
=79	=79	=79
*	*^	*
*	*	*	*^
!	!	!	!	!LO:DY:b=2
8D 8DD/	8dd 8f#/	4ryy	ff	ff
8r	8r	.	.	.
2d 2A 2F#^<\	(>4.dd^>/	2f#\	.	.
.	8cc#/)	.	.	.
*	*	*	*v	*v
*	*v	*v	*
=80	=80	=80
.	(<8qcc#/	.
8AA 8AAA/	8b 8g/)	.
8r	8r	.
2e 2c# 2A 2G^<\	2a [<2g^</	.
=81	=81	=81
8AA 8AAA/	8g/L]	.
8r	16r	.
.	(<16a/Jk	.
4e 4c# 4A 4G\	4b 4g/)	.
4e 4c# 4A 4G\	4cc# 4g/	.
!!LO:LB:g=original
=82	=82	=82
*	*^	*
*xywh-7:223,3513,3605,1279	*xywh-7:223,3513,3605,1279	*xywh-7:223,3513,3605,1279	*
8D 8DD/	8ddL 8f#^</	4ryy	<
8r	8eeJ 8f#^</	.	.
2d 2A 2F#^<\	(>4.ff#^>/	2f#\	[ >
.	8a/)	.	.
=83	=83	=83	=83
8D 8DD/	8dd 8f#/	4ryy	]
8r	8r	.	.
2d 2A 2F#^<\	(>4.dd^>/	2f#\	.
.	8cc#/)	.	.
*	*v	*v	*
=84	=84	=84
.	(<8qcc#/	.
8AA 8AAA/	8b 8g/)	.
8r	8r	.
2e 2c# 2A 2G^<\	2a [<2g^</	.
=85	=85	=85
8AA 8AAA/	8g/L]	.
8r	16r	.
.	(<16a/Jk	.
4e 4c# 4A 4G\	4b 4g/)	.
4e 4c# 4A 4G\	4cc# 4g/	.
=86	=86	=86
*	*	*^
4D 4DD/	4dd 4f#/	.	.
!	!	!	!LO:DY:b=2
4D 4DD/	4ddd 4aa 4ff# 4dd\	sf	sf
4r	4r	.	.
*	*	*v	*v
*	*clefF4	*
*kcancel	*kcancel	*
!!LO:PB:g=original
=87||	=87||	=87||
*k[f#]	*k[f#]	*
*xywh-8:397,411,3609,1335	*xywh-8:397,411,3609,1335	*
!	!LO:TUP:a:problem=klamra łukowa	!
4D 4DD/	12d\L	.
.	12e\	.
.	12d\J	.
*clefG2	*	*
4cc 4f# 4d/	8A\	.
.	8r	.
4cc 4f# 4d/	4c\	.
*clefF4	*	*
=88	=88	=88
.	(<16qqB/LL	.
.	16qqc#/JJ	.
4G 4GG/	4B\)	.
*clefG2	*	*
2b 2g 2d/	8G\L	.
.	8F#\J	.
.	4E\	.
*clefF4	*	*
=89	=89	=89
4DD/	8D\L	.
.	8F#\	.
*clefG2	*	*
4cc 4f# 4d/	8A\	.
.	8c\	.
4cc 4f# 4d/	8B\	.
.	8A\J	.
*clefF4	*	*
=90	=90	=90
4GG/	8G\L	.
.	8B\	.
*clefG2	*	*
2b 2g/	8d\	.
.	8g\	.
.	8f#\	.
.	8e\J	.
!!LO:LB:g=original
*clefF4	*	*
=91	=91	=91
*xywh-8:335,1697,3670,900	*xywh-8:335,1697,3670,900	*
!	!LO:TUP:a:problem=klamra łukowa	!
4D 4DD/	12d\L	.
.	12e\	.
.	12d\J	.
*clefG2	*	*
4cc 4f# 4d/	8A\	.
.	8r	.
4cc 4f# 4d/	4c\	.
*clefF4	*	*
=92	=92	=92
.	(<16qqB/LL	.
.	16qqc/JJ	.
4GG/	4B\)	.
2e 2B-X 2C#X\	8G\L	.
.	8F#\J	.
.	4E\	.
=93	=93	=93
4DD/	8D\L	.
.	8F#\	.
*clefG2	*	*
4cc 4f# 4d/	8A\	.
.	8c\	.
4cc 4f# 4d/	8B\	.
.	8A\J	.
*clefF4	*	*
=94	=94	=94
4GG/	8A\L	.
.	8G\J	.
*clefG2	*	*
4b 4g 4d/	4G\	.
4r	4r	.
!!LO:LB:g=original
*clefF4	*clefG2	*
=95	=95	=95
*xywh-8:293,2482,3449,1047	*xywh-8:293,2482,3449,1047	*
!	!LO:TUP:a	!
4d 4D\	(>12ddd\L	pp
!	!LO:TX:b:i:B:t=leggiero	!
.	12eee\	.
.	12ddd\J	.
*clefG2	*	*
4cc 4f# 4d/	8aa\)	.
.	8r	.
4cc 4f# 4d/	4ccc'\	.
=96	=96	=96
.	(<16qqbb/LL	.
.	16qqccc/JJ	.
4G/	8bb\)	.
.	8r	.
2b 2g 2d^</	(>8gg^<\L	.
.	8ff#\J	.
.	4ee\)	.
*clefF4	*	*
=97	=97	=97
4d 4D\	(>8dd\L	<
.	8ff#\	.
*clefG2	*	*
4cc 4f# 4d/	8aa\	.
.	8ccc\	[ >
4cc 4f# 4d/	8bb\	.
.	8aa\J)	]]
=98	=98	=98
4G/	(>8gg\L	<
.	8bb\	.
2b 2g 2d^</	8ddd\	.
.	8ggg^>\	[ >
.	8fff#\	.
.	8eee\J)	]]
!!LO:LB:g=original
*clefF4	*	*
=99	=99	=99
*xywh-8:329,3431,3486,1378	*xywh-8:329,3431,3486,1378	*
!	!LO:TUP:a	!
4d\	(>12ddd\L	.
.	12eee\	.
.	12ddd\J	.
*clefG2	*	*
4cc 4f# 4d/	8aa\)	.
.	8r	.
*clefF4	*	*
4d#X 4D#X\	4ccc'\	.
=100	=100	=100
.	(<16qqbb/LL	.
.	16qqccc/JJ	.
4e 4E\	8bb\)	.
.	8r	.
2e 2B-X 2C#X^<\	(>8gg^>\L	.
.	8ff#\J	.
.	4ee\)	.
=101	=101	=101
4d 4D\	(>8dd\L	<
.	8ff#\	.
*clefG2	*	*
4a 4f# 4d/	8aa\	.
.	8ccc^>\	[ >
4a 4f# 4d/	8ee\	.
.	8ff#\J)	]]
=102	=102	=102
4f# 4G/	8aaL 8cc\	.
.	16r	.
.	16ggJk 16b\	.
4g 4G/	4gg 4b\	.
4r	4r	.
!!LO:PB:g=original
*clefF4	*	*
=103||	=103||	=103||
*k[f#c#]	*k[f#c#]	*
*	*^	*
*xywh-9:311,427,3520,1372	*xywh-9:311,427,3520,1372	*xywh-9:311,427,3520,1372	*
8F#'\	8dd 8f#/	4ryy	p
8r	8r	.	.
2d 2A 2F#\	(>4.dd^>/	2f#\	.
.	8cc#/)	.	.
*	*v	*v	*
=104	=104	=104
.	(<8qcc#/	.
8AA'/	8b 8g/)	.
8r	8r	.
2e 2c# 2A 2G\	(<2a 2g^</	.
=105	=105	=105
8AA'/	8g/L)	<
8r	16r	.
.	(<16a/Jk	.
4e 4c# 4A 4G\	4b 4g/)	.
4e 4c# 4A 4G\	4cc# 4g/	[[
=106	=106	=106
*	*^	*
8D'\	8dd 8f#/	4ryy	.
8r	8r	.	.
2d 2A 2F#\	(>4.ff#^>/	2f#\	.
.	8a/)	.	.
!!LO:LB:g=original
=107	=107	=107	=107
*xywh-9:268,1696,3422,994	*xywh-9:268,1696,3422,994	*xywh-9:268,1696,3422,994	*
8F#'\	8dd 8f#/	4ryy	.
8r	8r	.	.
2d 2A 2F#\	(>4.dd^>/	2f#\	.
.	8cc#/)	.	.
*	*v	*v	*
=108	=108	=108
.	(<8qcc#/	.
8AA'/	8b 8g/)	.
8r	8r	.
2e 2c# 2A 2G\	(<2a 2g^</	.
=109	=109	=109
8AA'/	8g/L)	.
8r	16r	.
.	(<16a/Jk	.
4e 4c# 4A 4G\	4b 4g/)	.
4e 4c# 4A 4G\	4cc# 4g/	.
=110	=110	=110
*	*	*^
4D/	4dd 4f#/	.	.
!	!	!	!LO:DY:b=2
4D 4DD/	4ddd 4aa 4ff# 4dd\	sf	sf
4r	4r	.	.
*	*	*v	*v
!!LO:LB:g=original
=111	=111	=111
*	*^	*
*	*	*	*^
*xywh-9:213,2605,3508,890	*xywh-9:213,2605,3508,890	*xywh-9:213,2605,3508,890	*	*
!	!	!	!	!LO:DY:b=2:rj
8D 8DD/	8dd 8f#/	4ryy	ff	ff
8r	8r	.	.	.
2d 2A 2F#^<\	(>4.dd^>/	2f#\	.	.
.	8cc#/)	.	.	.
*	*	*	*v	*v
*	*v	*v	*
=112	=112	=112
.	(<8qcc#/	.
8AA 8AAA/	8b 8g/)	.
8r	8r	.
2e 2c# 2A 2G^<\	(<2a 2g^</	.
=113	=113	=113
8AA 8AAA/	8g/L)	.
8r	16r	.
.	(<16a/Jk	.
4e 4c# 4A 4G\	4b 4g/)	.
4e 4c# 4A 4G\	4cc# 4g/	.
=114	=114	=114
*	*^	*
8D 8DD/	8ddL 8f#^</	4ryy	<
8r	8eeJ 8f#^</	.	.
2d 2A 2F#^<\	(>4.ff#^>/	2f#\	[ >
.	8a/)	.	.
!!LO:LB:g=original
=115	=115	=115	=115
*xywh-9:244,3459,3508,1342	*xywh-9:244,3459,3508,1342	*xywh-9:244,3459,3508,1342	*
8D 8DD/	8dd 8f#/	4ryy	]
8r	8r	.	.
2d 2A 2F#^<\	(>4.dd^>/	2f#\	.
.	8cc#/)	.	.
*	*v	*v	*
=116	=116	=116
.	(<8qcc#/	.
8AA 8AAA/	8b 8g/)	.
8r	8r	.
2e 2c# 2A 2G^<\	(<2a 2g^</	.
=117	=117	=117
8AA 8AAA/	8g/L)	.
8r	16r	.
.	(<16a/Jk	.
4e 4c# 4A 4G\	4b 4g/)	.
4e 4c# 4A 4G\	4cc# 4g/	.
=118	=118	=118
*	*	*^
4D 4DD/	4dd 4f#/	.	.
!	!	!	!LO:DY:b=2
4D 4DD/	4ddd 4aa 4ff# 4dd\	sf	sf
!	!LO:TX:b:i:B:t=Fine.	!	!
4r	4r	.	.
*	*	*v	*v
!!LO:LB:g=original
=119||	=119||	=119||
*>B	*>B	*
*xywh-10:241,417,3642,1392	*xywh-10:241,417,3642,1392	*
8GL 8D 8GG'/	8dL 8B'/	mf
16r	16r	.
16GJk 16D 16GG'/	16dJk 16B'/	.
4G 4D 4GG'/	4d 4B'/	.
4G 4D 4GG^</	4g 4d 4B^</	.
=120	=120	=120
4A 4D 4GG'\	4f# 4d 4c#'/	.
4F# 4D 4GG'\	4a 4d 4c#'/	.
4A 4D 4GG^>\	4d 4c#^</	.
=121	=121	=121
8GL 8D 8GG'/	8dL 8B'/	.
16r	16r	.
16GJk 16D 16GG'/	16dJk 16B'/	.
4G 4D 4GG'/	4d 4B'/	.
4G 4D 4GG^</	4g 4d 4B^</	.
=122	=122	=122
4A 4D 4GG'\	4f# 4d 4c#'/	.
4F# 4D 4GG'\	4a 4d 4c#'/	.
4A 4D 4GG^>\	4d 4c#^</	.
!!LO:LB:g=original
=123	=123	=123
*xywh-10:352,1834,3556,778	*xywh-10:352,1834,3556,778	*
8GL 8D 8GG/	8dL 8B/	.
16r	16r	.
16GJk 16D 16GG/	16dJk 16B/	.
4G 4D 4GG/	4d 4B/	.
4G 4D 4GG^</	4g 4d 4B^</	.
=124	=124	=124
8C#L 8CC#/	8eL 8c#/	<
16r	16r	.
16C#Jk 16CC#/	16eJk 16c#/	.
4C# 4CC#/	4e 4c#/	.
4C# 4CC#^</	4a 4e 4c#^</	[[
=125	=125	=125
8AAL 8AAA/	8cc#L 8e 8c#/	f
16r	16r	.
16AAJk 16AAA/	16cc#Jk 16e 16c#/	.
4AA 4AAA/	4cc# 4e 4c#/	.
4AA 4AAA/	4b 4e 4c#/	.
=126	=126	=126
8DL 8DD/	8bL 8f# 8c#/	>
16r	16r	.
16DJk 16DD/	16bJk 16f# 16c#/	.
4D 4DD/	4a 4f# 4c#/	.
4D 4DD/	4f# 4c#/	]]
!!LO:LB:g=original
=127	=127	=127
*xywh-10:413,2582,3624,833	*xywh-10:413,2582,3624,833	*
!	!LO:TX:b:i:B:t=dolce	!
.	(>[<8qdd/	p <
8dL 8B 8G\	2ddd 2dd\])	.
16r	.	.
16dJk 16B 16G\	.	.
4d 4B 4G'\	.	.
4g 4d 4B 4G'\	4ccc#X 4dd\	[[
=128	=128	=128
4f# 4d 4c# 4G'\	8aaL 8dd\	>
.	16r	.
.	(>16aaJk 16dd\	.
4a 4d 4c# 4G'\	4cccn 4dd\)	.
4d 4c# 4G'\	4bb 4dd\	]]
=129	=129	=129
.	(>[<8qdd/	<
8dL 8B 8G\	2ddd 2dd\])	.
16r	.	.
16dJk 16B 16G\	.	.
4d 4B 4G\	.	.
4g 4d 4B 4G\	4ccc#X 4dd\	[[
=130	=130	=130
4f# 4d 4c# 4G\	8aaL 8dd\	>
.	16r	.
.	(>16aaJk 16dd\	.
4a 4d 4c# 4G\	4cccn 4dd\)	.
4d 4c# 4G\	4bb 4dd\	]]
!!LO:LB:g=original
=131	=131	=131
*xywh-10:388,3428,3476,1342	*xywh-10:388,3428,3476,1342	*
.	(>[<8qdd/	<
8dL 8B 8G\	2ddd 2dd\])	.
16r	.	.
16dJk 16B 16G\	.	.
4d 4B 4G\	.	.
4g 4B 4G\	4ddd#X 4dd#X\	[[
=132	=132	=132
*^	*^	*
.	.	(>[<8qee/	.	.
8eL 8A/	2.C#\	(>4.eee/)	2ee\]	.
16rF	.	.	.	.
16eJk 16A/	.	.	.	.
4e 4A/	.	.	.	.
.	.	8ccc#/L	.	.
4e 4A/	.	8aa/	4cc#\	.
.	.	8gg/J)	.	.
=133	=133	=133	=133	=133
8.f#L 8.A/	2.D\	(>8gg/L	2cc#\	]
.	.	8ff#/J	.	.
16f#Jk 16A/	.	.	.	.
4f# 4A/	.	8aa/L	.	.
.	.	8ee/	.	.
4f# 4A/	.	8ff#/	4cc#\	.
.	.	8dd/J)	.	.
*v	*v	*	*	*
=134	=134	=134	=134
8gL 8d 8G\	2gg/	2b\	.
16r	.	.	.
16gJk 16d 16G\	.	.	.
4g 4d 4G\	.	.	.
4a 4d 4G\	4ryy	4dd\ 4cc#\	.
*	*v	*v	*
!!LO:PB:g=original
=135	=135	=135
*xywh-11:412,482,3277,1306	*xywh-11:412,482,3277,1306	*
8gL 8d 8G\	8ddL 8b/	.
16r	16r	.
16GJk 16D 16GG\	16dJk 16B/	.
4G 4D 4GG/	4d 4B/	.
4G 4D 4GG^</	4g 4d 4B^</	.
=136	=136	=136
4A 4D 4GG\	4f# 4d 4c#/	.
4F# 4D 4GG/	4a 4d 4c#/	.
4A 4D 4GG^>\	4d 4c#^</	.
=137	=137	=137
8GL 8D 8GG/	8dL 8B/	.
16r	16r	.
16GJk 16D 16GG/	16dJk 16B/	.
4G 4D 4GG/	4d 4B/	.
4G 4D 4GG^</	4g 4d 4B^</	.
=138	=138	=138
4A 4D 4GG\	4f# 4d 4c#/	.
4F# 4D 4GG/	4a 4d 4c#/	.
4A 4D 4GG^>\	4d 4c#^</	.
!!LO:LB:g=original
=139	=139	=139
*xywh-11:412,1867,3448,848	*xywh-11:412,1867,3448,848	*
8GL 8D 8GG/	8dL 8B/	.
16r	16r	.
16GJk 16D 16GG/	16dJk 16B/	.
4G 4D 4GG/	4d 4B/	.
4G 4D 4GG^</	4g 4d 4B^</	.
=140	=140	=140
8C#L 8CC#/	8eL 8c#/	<
16r	16r	.
16C#Jk 16CC#/	16eJk 16c#/	.
4C# 4CC#/	4e 4c#/	.
4C# 4CC#^</	4a 4e 4c#^</	[[
=141	=141	=141
8AAL 8AAA/	8cc#L 8e 8c#/	f
16rD	16r	.
16AAJk 16AAA/	16cc#Jk 16e 16c#/	.
4AA 4AAA/	4cc# 4e 4c#/	.
4AA 4AAA/	4b 4e 4c#/	.
=142	=142	=142
8DL 8DD/	8bL 8f# 8c#/	>
16rD	16r	.
16DJk 16DD/	16bJk 16f# 16c#/	.
4D 4DD/	4a 4f# 4c#/	.
4D 4DD/	4f# 4c#/	]]
!!LO:LB:g=original
=143	=143	=143
*xywh-11:382,2661,3314,903	*xywh-11:382,2661,3314,903	*
!	!LO:TX:b:i:B:t=dolce	!
.	(>[<8qdd/	p <
8dL 8B 8G\	2ddd 2dd\])	.
16r	.	.
16dJk 16B 16G\	.	.
4d 4B 4G'\	.	.
4g 4d 4B 4G'\	4ccc#X 4dd\	[[
=144	=144	=144
4f# 4d 4c# 4G'\	8aaL 8dd\	>
.	16r	.
.	(>16aaJk 16dd\	.
4a 4d 4c# 4G'\	4cccn 4dd\)	.
4d 4c# 4G'\	4bb 4dd\	]]
=145	=145	=145
.	(>[<8qdd/	<
8dL 8B 8G\	2ddd 2dd\])	.
16r	.	.
16dJk 16B 16G\	.	.
4d 4B 4G\	.	.
4g 4d 4B 4G\	4ccc#X 4dd\	[[
=146	=146	=146
4f# 4d 4c# 4G\	8aaL 8dd\	>
.	16r	.
.	(>16aaJk 16dd\	.
4a 4d 4c# 4G\	4cccn 4dd\)	.
4d 4c# 4G\	4bb 4dd\	]]
!!LO:LB:g=original
=147	=147	=147
*xywh-11:424,3485,3399,1727	*xywh-11:424,3485,3399,1727	*
.	(>[<8qdd/	<
8dL 8B 8G\	2ddd 2dd\])	.
16r	.	.
16dJk 16B 16G\	.	.
4d 4B 4G\	.	.
4g 4B 4G\	4ddd#X 4dd#X\	[[
=148	=148	=148
*^	*^	*
.	.	(>[<8qee/	.	.
8eL 8A/	2.C#\	(>4.eee/))	2ee\]	.
16rd	.	.	.	.
16eJk 16A/	.	.	.	.
4e 4A/	.	.	.	.
.	.	8ccc#/L	.	.
4e 4A/	.	8aa/	4cc#\	.
.	.	8gg/J)	.	.
=149	=149	=149	=149	=149
8.f#L 8.A/	2.D\	(>8gg/L	2cc#\	]
.	.	8ff#/J	.	.
16f#Jk 16A/	.	.	.	.
4f# 4A/	.	8aa/L	.	.
.	.	8ee/	.	.
4f# 4A/	.	8ff#/	4cc#\	.
.	.	8dd/J)	.	.
*v	*v	*	*	*
*	*v	*v	*
=150	=150	=150
4g 4d 4G\	4gg 4b\	.
4G 4D 4GG/	4ggg 4bb 4gg\	.
!LO:TX:b:i:B:t=Da Capo sin al Fine.	!	!
4r	4r	.
==	==	==
*-	*-	*-
!!!system-decoration: {(s1,s2)}
!!!RDF**kern: > = above
!!!RDF**kern: < = below
!!!ENC: Filip Voros
!!!END: 2022-02-18
!!!EED: Antoni Szymański
!!!EEV: 2022-02-27
!!!IIIF: https://polona.pl/iiif/item/MTAwOTE0MzA1/manifest.json
!!!ENC-iiif: Natalia Wrzos
!!!END-iiif: 2022-08-30
!!!YEC: Copyright 2022 Narodowy Instytut Fryderyka Chopina (https://polishscores.org)
!!!YEM: License CC-BY-4.0 (https://creativecommons.org/licenses/by/4.0)
